lib/brands/logos/atom.svg

<svg xmlns="http://www.w3.org/2000/svg" fill="none" aria-hidden="true" viewBox="0 0 225 52"><g id="Atom"><path id="Vector" fill="#60B57D" d="M28.6537 7.0829C29.0771 7.42302 29.1446 8.04198 28.8045 8.46539C28.4643 8.8888 27.8454 8.95631 27.422 8.61619C24.8585 6.55697 22.7232 5.8771 21.4062 6.54939C19.8735 7.33102 19.2792 9.84582 19.5885 13.3551L19.6351 13.8288C19.6611 14.0686 19.691 14.3126 19.725 14.5607L19.7983 15.0622C19.8893 15.6486 20.0017 16.256 20.1353 16.8817C21.9813 16.5956 23.9682 16.4086 26.0548 16.3307C26.9598 15.1679 27.8801 14.0764 28.8044 13.0657L29.2675 12.5664C30.4261 11.3351 31.588 10.2331 32.7314 9.27919L33.1877 8.90558C37.3605 5.55405 41.2442 4.22789 43.7559 5.85858C45.9438 7.27801 46.5302 10.4934 45.7176 14.8023C45.617 15.336 45.1027 15.6871 44.569 15.5864C44.0353 15.4858 43.6843 14.9716 43.7849 14.4379C44.4654 10.8293 44.0174 8.37264 42.6852 7.50833C40.9537 6.38417 37.7361 7.67833 34.1081 10.7007L33.7034 11.0435C33.5002 11.2185 33.2959 11.3987 33.0906 11.5841L32.6789 11.9616C32.266 12.3459 31.8497 12.7505 31.4315 13.1743L31.0128 13.6045C30.943 13.6773 30.8731 13.7506 30.8031 13.8244L30.3832 14.2735L29.9628 14.7349L29.5423 15.2085C29.4021 15.3683 29.262 15.5302 29.122 15.6939L28.7023 16.1911L28.6205 16.2902C29.5988 16.2954 30.5942 16.3237 31.6029 16.3762L31.9944 16.3977L32.7726 16.4476C33.4182 16.4929 34.0567 16.5475 34.6869 16.611L35.4392 16.6915C35.564 16.7056 35.6883 16.72 35.8123 16.7349L36.5521 16.8279C37.165 16.9089 37.7686 16.9985 38.3621 17.0963L39.0692 17.2176L39.7662 17.3466L40.4525 17.4832C42.7223 17.9512 44.8092 18.5439 46.6482 19.2385L47.1925 19.45C52.0224 21.3799 54.9988 24.0365 54.8461 26.973C54.7194 29.4006 52.5435 31.4045 48.8962 32.8405C48.3909 33.0395 47.8199 32.7911 47.621 32.2858C47.422 31.7804 47.6704 31.2095 48.1757 31.0105C51.1833 29.8263 52.8058 28.3322 52.882 26.8707C52.9793 24.9997 50.7407 23.0647 47.0144 21.5038L46.5507 21.3146C46.2368 21.1897 45.9131 21.0675 45.5802 20.9481L45.074 20.7712C44.903 20.7129 44.7297 20.6554 44.5543 20.5987L44.0215 20.4309L43.4759 20.2678C43.3839 20.2411 43.2914 20.2145 43.1984 20.1882L42.6342 20.0327C42.5392 20.0072 42.4437 19.982 42.3476 19.9569L41.7657 19.8094C41.178 19.6646 40.5732 19.5281 39.9529 19.4007L39.3274 19.2764C39.2223 19.2562 39.1168 19.2363 39.0108 19.2166L38.3704 19.1017L37.7205 18.9933C37.6115 18.9758 37.502 18.9585 37.3921 18.9416L36.7286 18.8433C36.506 18.8117 36.2819 18.7812 36.0565 18.752L35.376 18.6678L34.6876 18.5909C34.3415 18.5543 33.9925 18.5205 33.6409 18.4897L32.9341 18.4319C32.6974 18.4139 32.4595 18.3973 32.2206 18.382L31.5007 18.3403L30.7803 18.3071L30.0655 18.2826C29.2349 18.2592 28.4163 18.2533 27.6122 18.2639L27.0501 18.2743L26.8293 18.5675C26.692 18.7517 26.5551 18.9376 26.4186 19.1252L26.0105 19.6933C25.5361 20.362 25.0678 21.0514 24.6081 21.7599C24.4767 21.9623 24.3471 22.1648 24.2192 22.3671L23.8406 22.9739C23.4373 23.6289 23.0522 24.2826 22.6856 24.9326C22.7198 25.0145 22.7539 25.0969 22.7883 25.1795L23.0556 25.8109C23.101 25.9164 23.1468 26.022 23.1931 26.1278L23.4759 26.7639L23.7689 27.4026L24.0723 28.0435L24.3858 28.6864L24.7096 29.3307L25.041 29.9711L25.3773 30.6025L25.718 31.2244C25.7752 31.3273 25.8325 31.4297 25.89 31.5318L26.2369 32.1392C26.3532 32.34 26.4701 32.5391 26.5876 32.7366L26.9417 33.3237C27.0603 33.5177 27.1794 33.71 27.2989 33.9004L27.659 34.4663L28.0216 35.0213C28.3248 35.4791 28.6302 35.9253 28.9372 36.3591L29.3063 36.8738C29.5527 37.2129 29.8 37.5439 30.0476 37.8666L30.4192 38.3444L30.7911 38.8093C30.8531 38.8857 30.915 38.9616 30.977 39.0369L31.3487 39.4821L31.7199 39.914C32.0907 40.3391 32.4602 40.7437 32.8272 41.1268L33.1933 41.5026L33.5573 41.8638C33.7388 42.0407 33.9194 42.212 34.0989 42.3777L34.4565 42.7013C34.6346 42.8592 34.8115 43.0114 34.987 43.1576L35.3363 43.442C37.7104 45.3312 39.8141 46.0941 41.2108 45.3817C42.5224 44.713 43.1482 42.7605 43.1021 39.9916L43.0901 39.5702C43.0845 39.4277 43.0771 39.2833 43.0681 39.1369L43.036 38.692C43.0236 38.5419 43.0096 38.3898 42.9939 38.236L42.9417 37.7691C42.9321 37.6904 42.9222 37.6113 42.9118 37.5317L42.8446 37.0492L42.7674 36.5567L42.6801 36.0546C42.6033 35.6323 42.516 35.2003 42.4183 34.7596L42.2962 34.2266L42.164 33.6856C42.1412 33.5947 42.1179 33.5036 42.0943 33.4121L41.9472 32.8597L41.7902 32.3001C41.7633 32.2062 41.7359 32.1121 41.708 32.0177L41.5362 31.448L41.3544 30.872C41.2611 30.5824 41.164 30.2907 41.0633 29.9969L40.8568 29.4067L40.6404 28.8115C40.4929 28.413 40.3388 28.0114 40.1782 27.6071L39.9323 26.9988L39.6766 26.3868C39.6331 26.2845 39.5893 26.182 39.545 26.0795L39.2746 25.4626L38.9944 24.843C38.9468 24.7395 38.8989 24.6359 38.8506 24.5322L38.5556 23.909C38.5057 23.805 38.4553 23.7009 38.4045 23.5967C38.1665 23.1085 38.3694 22.5199 38.8576 22.2819C39.3458 22.0439 39.9344 22.2468 40.1724 22.735L40.4985 23.4141C40.6055 23.6402 40.7107 23.8659 40.814 24.0913L41.1188 24.7661C41.4181 25.4397 41.7013 26.1092 41.968 26.773L42.2291 27.4349C42.2717 27.5449 42.3139 27.6547 42.3555 27.7643L42.6001 28.4199C42.6399 28.5288 42.6792 28.6374 42.7181 28.7459L42.9459 29.3943C43.094 29.8248 43.2345 30.2518 43.3675 30.6749L43.5613 31.3064C45.8802 39.0567 45.5827 45.3602 42.1043 47.1338C39.2907 48.5689 35.3014 46.5756 31.2859 42.3718L30.8704 41.9291C30.5934 41.6287 30.3165 41.3181 30.0401 40.9975L29.6258 40.5093C28.5221 39.1878 27.4284 37.7108 26.369 36.104L25.9733 35.4954C24.9885 33.9589 24.0363 32.3111 23.1368 30.573L22.9576 30.2242C22.8386 29.9909 22.7214 29.7577 22.6061 29.5247L22.2658 28.8266C21.9979 28.2685 21.7408 27.7121 21.4946 27.1582L21.3362 27.4732C21.2872 27.5715 21.2387 27.6696 21.1906 27.7676L20.9076 28.3534L20.6355 28.935L20.3744 29.5119C20.3318 29.6077 20.2896 29.7032 20.2479 29.7985L20.0034 30.3678C19.9635 30.4622 19.9241 30.5564 19.8852 30.6503L19.6573 31.211C19.6203 31.304 19.5837 31.3967 19.5476 31.4891L19.3366 32.0404C19.3023 32.1317 19.2686 32.2227 19.2353 32.3135L19.0412 32.8545L18.8584 33.3881C18.7699 33.6531 18.6857 33.9151 18.6058 34.174L18.4518 34.6877L18.3094 35.1926C18.2866 35.276 18.2643 35.3591 18.2425 35.4417L18.1176 35.9329C18.0184 36.3383 17.9313 36.7336 17.8567 37.1178L17.7731 37.5736C17.2164 40.8008 17.5792 43.1809 18.9583 44.0759C20.3474 44.9771 22.9232 44.2915 26.1015 41.997C26.5418 41.6791 27.1565 41.7783 27.4744 42.2187C27.7923 42.659 27.693 43.2737 27.2527 43.5916C23.4858 46.311 20.1561 47.1973 17.8878 45.7257C15.1473 43.9472 14.9546 39.2445 16.7787 33.3941L16.9678 32.8053C17.0983 32.4103 17.2377 32.0104 17.3858 31.6063L17.6146 30.9969C17.9282 30.1803 18.2765 29.3474 18.658 28.5026L18.9504 27.8668L19.2552 27.2269C19.6435 26.4254 20.0605 25.6153 20.5052 24.7999C20.4464 24.6492 20.3879 24.4989 20.3303 24.3489L20.0758 23.6735C19.7444 22.7761 19.4444 21.8914 19.1766 21.0237L18.9818 20.3761C18.8615 19.9656 18.7487 19.5592 18.6433 19.1574L18.2829 19.232L17.7481 19.3496L17.2263 19.473C17.1404 19.4941 17.0551 19.5154 16.9704 19.5369L16.4686 19.6688L15.9808 19.8062C15.8205 19.8529 15.6626 19.9005 15.5071 19.9489L15.0481 20.0969C14.8975 20.147 14.7494 20.198 14.6039 20.2498L14.1751 20.4077C11.2279 21.5298 9.43268 23.0022 9.34926 24.6059C9.27302 26.0675 10.7317 27.7222 13.6006 29.2118C14.0826 29.4621 14.2704 30.0557 14.0202 30.5377C13.7699 31.0197 13.1763 31.2076 12.6943 30.9573C9.21503 29.1507 7.25855 26.9314 7.38518 24.5036C7.56123 21.1191 11.8334 18.5358 18.188 17.2314C16.9019 11.0861 17.5564 6.30497 20.5124 4.79751C22.6972 3.68219 25.5516 4.59103 28.6537 7.0829ZM157.614 10.603C167.121 10.603 173.356 18.1826 173.356 26.7481V26.8388C173.356 35.405 167.031 43.074 157.524 43.074C148.016 43.074 141.781 35.495 141.781 26.9282V26.8388C141.781 18.2726 148.105 10.603 157.614 10.603ZM189.409 11.0065C189.903 11.0065 190.262 11.276 190.575 11.6802L202.82 29.7091L215.065 11.6802C215.333 11.276 215.738 11.0065 216.23 11.0065H216.455C217.082 11.0065 217.621 11.5455 217.621 12.1725V41.5485C217.621 42.1768 217.082 42.7157 216.455 42.7157C215.826 42.7157 215.289 42.1768 215.289 41.5485V15.2676L203.762 32.0417C203.493 32.4459 203.178 32.6247 202.776 32.6247C202.371 32.6247 202.057 32.4459 201.789 32.0417L190.262 15.2676V41.5944C190.262 42.2215 189.769 42.7157 189.141 42.7157C188.513 42.7157 188.02 42.2221 188.02 41.5944V12.1725C188.02 11.5455 188.558 11.0065 189.186 11.0065H189.409ZM130.93 11.1406C131.512 11.1406 132.006 11.6336 132.006 12.2172C132.006 12.8009 131.513 13.2938 130.93 13.2938H120.883V41.5497C120.883 42.1768 120.345 42.7157 119.717 42.7157C119.09 42.7157 118.551 42.1768 118.551 41.5497V13.2938H108.504C107.921 13.2938 107.428 12.8015 107.428 12.2172C107.428 11.6342 107.921 11.1406 108.504 11.1406H130.93ZM84.8255 10.8271C85.6326 10.8271 86.0815 11.276 86.3944 11.9497L99.7599 40.9214C99.8947 41.1909 99.9394 41.415 99.9394 41.6398C99.9394 42.2221 99.4464 42.7157 98.8174 42.7157C98.2798 42.7157 97.8762 42.3122 97.6521 41.8186L93.9747 33.7454H75.4509L71.7729 41.8639C71.5487 42.4016 71.1905 42.7157 70.6516 42.7157C70.0686 42.7157 69.575 42.2675 69.575 41.7285C69.5756 41.5491 69.6209 41.2803 69.7557 41.0114L83.1652 11.9497C83.4794 11.276 83.9277 10.8271 84.7355 10.8271H84.8255ZM157.524 12.7108C149.764 12.7108 144.203 18.9897 144.203 26.7481V26.8388C144.203 34.5978 149.854 40.9661 157.614 40.9661C165.372 40.9661 170.934 34.6872 170.934 26.9282V26.8388C170.934 19.0798 165.282 12.7108 157.524 12.7108ZM84.7348 13.4739L76.4375 31.6375H92.9875L84.7348 13.4739ZM34.0427 25.3752C34.369 26.8854 33.4093 28.3732 31.8991 28.7002C30.389 29.0265 28.9011 28.0667 28.5742 26.5566C28.2485 25.0464 29.2076 23.5586 30.7178 23.2316C32.228 22.9053 33.7158 23.8651 34.0427 25.3752ZM24.5223 18.3891L24.4801 18.3922C24.299 18.4048 24.119 18.4182 23.94 18.4326L23.3003 18.4877L22.67 18.55C22.5658 18.561 22.462 18.5723 22.3586 18.5838L21.7433 18.6567C21.6416 18.6694 21.5404 18.6824 21.4395 18.6956L20.84 18.7787L20.602 18.8147L20.6861 19.1288C20.8178 19.6072 20.9604 20.0934 21.1139 20.5863L21.3033 21.1811L21.4019 21.4808L21.607 22.0847C21.6635 22.2477 21.7211 22.4113 21.7799 22.5755C22.0911 22.0575 22.4132 21.5382 22.7458 21.019L22.9582 20.6894C23.4702 19.9004 23.9923 19.1329 24.5223 18.3891Z"/></g></svg>

<svg xmlns="http://www.w3.org/2000/svg" fill="none" aria-hidden="true" viewBox="0 0 225 52"><path fill="#60B57D" d="M28.654 7.083a.983.983 0 0 1-1.232 1.533c-2.564-2.06-4.699-2.739-6.016-2.067-1.532.782-2.127 3.297-1.817 6.806l.046.474c.026.24.056.484.09.732l.073.501c.091.587.204 1.194.337 1.82a51.338 51.338 0 0 1 5.92-.551 53.814 53.814 0 0 1 2.75-3.265l.462-.5a39.865 39.865 0 0 1 3.464-3.287l.457-.373c4.172-3.352 8.056-4.678 10.568-3.047 2.188 1.419 2.774 4.634 1.962 8.943a.983.983 0 1 1-1.933-.364c.68-3.609.232-6.065-1.1-6.93-1.731-1.124-4.949.17-8.577 3.193l-.405.342c-.203.176-.407.356-.612.541l-.412.378c-.413.384-.83.788-1.248 1.212l-.418.43-.21.22-.42.45-.42.46-.42.474c-.14.16-.281.322-.421.486l-.42.497-.082.1a63.95 63.95 0 0 1 2.983.085l.391.022.779.05c.645.045 1.284.1 1.914.163l.752.08.373.044.74.093c.613.08 1.217.17 1.81.268l.707.122.697.129.687.136c2.27.468 4.356 1.06 6.195 1.755l.544.212c4.83 1.93 7.807 4.587 7.654 7.523-.127 2.428-2.302 4.431-5.95 5.867a.983.983 0 0 1-.72-1.83c3.007-1.184 4.63-2.678 4.706-4.14.097-1.87-2.141-3.805-5.868-5.366l-.463-.19a30.251 30.251 0 0 0-.97-.366l-.507-.177a35.576 35.576 0 0 0-.52-.172l-.532-.168-.546-.163a42.068 42.068 0 0 0-.278-.08l-.564-.155-.286-.076-.582-.148a47.675 47.675 0 0 0-1.813-.408l-.626-.125-.316-.06-.64-.114-.65-.109a44.308 44.308 0 0 0-.329-.051l-.663-.099a57.733 57.733 0 0 0-.672-.091l-.681-.084-.688-.077c-.346-.037-.696-.07-1.047-.101l-.707-.058a62.078 62.078 0 0 0-.713-.05l-.72-.042-.72-.033-.715-.024c-.831-.024-1.65-.03-2.454-.02l-.562.011-.22.293c-.138.185-.275.37-.411.558l-.409.568a60.248 60.248 0 0 0-1.79 2.674l-.38.607a59.18 59.18 0 0 0-1.154 1.959l.102.247.268.63c.045.106.09.212.137.318l.283.636.293.639.303.64.314.643.324.645.331.64.336.631.341.622.172.308.347.607c.116.201.233.4.35.597l.355.588c.118.194.237.386.357.576l.36.566.363.555c.303.458.608.904.915 1.338l.37.515c.246.339.493.67.74.993l.372.477.372.465.186.228.372.445.37.432c.372.425.741.83 1.108 1.213l.366.376.364.36c.182.178.362.349.542.515l.358.323c.178.158.355.31.53.456l.35.285c2.373 1.89 4.477 2.652 5.874 1.94 1.311-.67 1.937-2.621 1.891-5.39l-.012-.422a19.59 19.59 0 0 0-.022-.433l-.032-.445c-.012-.15-.026-.302-.042-.456l-.052-.467-.03-.237-.067-.483-.078-.492-.087-.502a34.55 34.55 0 0 0-.262-1.295l-.122-.533-.132-.541-.07-.274-.147-.552-.157-.56a36.367 36.367 0 0 0-.082-.282l-.172-.57-.182-.576c-.093-.29-.19-.581-.29-.875l-.207-.59-.217-.596a50.76 50.76 0 0 0-.462-1.204L39.932 27l-.255-.612a56.7 56.7 0 0 0-.132-.308l-.27-.616-.28-.62a76.722 76.722 0 0 0-.144-.31l-.295-.624-.151-.312a.983.983 0 1 1 1.767-.862l.327.68c.106.225.212.45.315.676l.305.675c.3.674.582 1.343.849 2.007l.261.662.127.33.244.655c.04.109.08.217.118.326l.228.648c.148.43.288.858.422 1.28l.193.632c2.32 7.75 2.022 14.054-1.457 15.828-2.813 1.435-6.803-.558-10.818-4.762l-.416-.443a37.37 37.37 0 0 1-.83-.931l-.414-.489a48.735 48.735 0 0 1-3.257-4.405l-.396-.609a61.626 61.626 0 0 1-2.836-4.922l-.18-.349a64.403 64.403 0 0 1-.35-.7l-.341-.697a62.936 62.936 0 0 1-.771-1.669l-.159.315a53.37 53.37 0 0 0-.145.295l-.283.585-.273.582-.26.577a52.64 52.64 0 0 0-.127.287l-.245.569-.118.282-.228.561-.11.278-.21.551-.102.273-.194.541-.183.534c-.088.265-.172.527-.252.786l-.154.514-.143.505-.067.249-.124.49c-.1.406-.187.801-.261 1.186l-.084.456c-.557 3.227-.194 5.607 1.185 6.502 1.39.901 3.965.215 7.144-2.08a.983.983 0 0 1 1.15 1.596c-3.766 2.719-7.096 3.605-9.364 2.134-2.74-1.779-2.933-6.482-1.11-12.332l.19-.589c.13-.395.27-.795.418-1.199l.229-.61c.313-.816.662-1.649 1.043-2.493l.292-.636.305-.64c.389-.802.806-1.612 1.25-2.427a86.51 86.51 0 0 1-.175-.451l-.254-.675a51.468 51.468 0 0 1-.9-2.65l-.194-.648c-.12-.41-.233-.817-.339-1.219l-.36.075-.535.117-.522.124-.256.064-.501.132-.488.137c-.16.047-.318.095-.474.143l-.459.148c-.15.05-.299.101-.444.153l-.429.158c-2.947 1.122-4.742 2.594-4.826 4.198-.076 1.461 1.383 3.116 4.252 4.606a.983.983 0 0 1-.907 1.745c-3.479-1.806-5.435-4.026-5.309-6.453.176-3.385 4.448-5.968 10.803-7.273-1.286-6.145-.632-10.926 2.324-12.434 2.185-1.115 5.04-.206 8.142 2.286Zm128.96 3.52c9.507 0 15.742 7.58 15.742 16.145v.09c0 8.567-6.325 16.236-15.832 16.236-9.508 0-15.743-7.579-15.743-16.146v-.09c0-8.565 6.324-16.235 15.833-16.235Zm31.795.404c.494 0 .853.269 1.166.673l12.245 18.03 12.245-18.03c.268-.404.673-.673 1.165-.673h.225c.627 0 1.166.539 1.166 1.165v29.376c0 .629-.539 1.168-1.166 1.168a1.187 1.187 0 0 1-1.166-1.168v-26.28l-11.527 16.774c-.269.404-.584.583-.986.583-.405 0-.719-.18-.987-.583l-11.527-16.774v26.326a1.11 1.11 0 0 1-1.121 1.122 1.11 1.11 0 0 1-1.121-1.122V12.172c0-.627.538-1.165 1.166-1.165h.223Zm-58.479.134c.582 0 1.076.493 1.076 1.076a1.09 1.09 0 0 1-1.076 1.077h-10.047V41.55c0 .627-.538 1.166-1.166 1.166a1.188 1.188 0 0 1-1.166-1.166V13.294h-10.047a1.09 1.09 0 0 1-1.076-1.077 1.09 1.09 0 0 1 1.076-1.076h22.426Zm-46.105-.314c.808 0 1.257.449 1.57 1.123L99.76 40.92c.135.27.18.494.18.719 0 .582-.494 1.076-1.123 1.076-.537 0-.94-.404-1.165-.898l-3.677-8.073H75.45l-3.678 8.119c-.224.538-.582.852-1.121.852-.583 0-1.077-.449-1.077-.988 0-.179.046-.448.18-.717l13.41-29.061c.314-.674.763-1.123 1.57-1.123h.09Zm72.699 1.884c-7.76 0-13.321 6.279-13.321 14.037v.09c0 7.76 5.651 14.128 13.411 14.128 7.758 0 13.32-6.279 13.32-14.038v-.09c0-7.758-5.652-14.127-13.41-14.127Zm-72.79.763-8.296 18.163h16.55l-8.253-18.163Zm-50.69 11.901a2.797 2.797 0 1 1-5.47 1.181 2.797 2.797 0 0 1 5.47-1.18Zm-9.52-6.986-.043.003-.54.04-.64.056-.63.062-.311.034-.616.073c-.101.012-.203.025-.303.039l-.6.083-.238.036.084.314c.132.478.274.964.428 1.457l.19.595.098.3.205.604c.056.163.114.326.173.49a63.4 63.4 0 0 1 .966-1.556l.212-.33a64.095 64.095 0 0 1 1.564-2.3Z"/></svg>
